tools/download-figma-icons/icons/outlined-large/shovel.svg

<svg width="65" height="65" viewBox="0 0 65 65" fill="none" xmlns="http://www.w3.org/2000/svg">
<path d="M64.553 11.8833L53.1212 0.461617C52.9784 0.315493 52.8079 0.199382 52.6196 0.120109C52.4313 0.0408364 52.229 0 52.0247 0C51.8204 0 51.6182 0.0408364 51.4299 0.120109C51.2416 0.199382 51.071 0.315493 50.9283 0.461617L47.1312 4.52265C47.0097 4.65659 46.9134 4.81136 46.8469 4.97951C46.8058 5.08452 46.7752 5.19334 46.7556 5.30439L45.8114 12.9188L20.2675 38.7774L15.2521 33.9549C14.9729 33.7052 14.6115 33.5672 14.2369 33.5672C13.8623 33.5672 13.5008 33.7052 13.2216 33.9549C13.0186 34.1478 7.99304 38.6759 5.55642 41.1227C2.81001 43.7949 0.943571 47.2409 0.206016 51.0011C-0.154509 52.925 -0.0405957 54.9077 0.537889 56.7776C1.11637 58.6475 2.14199 60.3482 3.52591 61.7324C4.52854 62.7726 5.73234 63.598 7.06406 64.1583C8.39578 64.7185 9.82758 65.002 11.2723 64.9914C15.7801 64.9914 20.4705 62.4329 23.9224 58.9709L31.0292 51.8641C31.3107 51.5807 31.4687 51.1975 31.4687 50.7981C31.4687 50.3986 31.3107 50.0154 31.0292 49.732L26.0443 44.5745L51.9638 19.1931L59.5782 18.2388C59.6964 18.2273 59.8126 18.2 59.9234 18.1575C60.0848 18.0882 60.2353 17.9959 60.3701 17.8834L64.4312 14.0661C64.5956 13.9339 64.731 13.7691 64.8288 13.5822C64.9266 13.3953 64.9848 13.1902 64.9997 12.9797C65.0034 12.7762 64.9657 12.5741 64.8889 12.3856C64.8121 12.1972 64.6978 12.0262 64.553 11.8833ZM28.5114 37.9246L26.9479 36.3611L47.253 15.8834L49.1414 17.7718L28.5114 37.9246ZM20.6533 45.5999C19.8144 46.4422 18.7612 47.0391 17.6075 47.3259C17.8602 46.0663 18.4822 44.9106 19.3944 44.006L24.826 38.5236L26.3489 40.0465L20.6533 45.5999ZM51.8014 16.1778L48.7556 13.132L49.2937 8.83749L56.0655 15.5991L51.8014 16.1778ZM27.821 50.7778L21.7295 56.8693C17.2826 61.3567 10.2672 64.1588 5.6884 59.58C4.63741 58.5359 3.86188 57.2474 3.43132 55.8299C3.00075 54.4124 2.9286 52.9102 3.22133 51.458C3.82955 48.3132 5.38472 45.4296 7.67831 43.1938C9.40425 41.4678 12.5414 38.5845 14.1861 37.1022L18.1152 40.9095L17.2116 41.8232C15.7668 43.2711 14.8209 45.1416 14.511 47.1634L14.2369 49.0315C14.197 49.2752 14.2179 49.525 14.2976 49.7588C14.3772 49.9925 14.5133 50.203 14.6937 50.3717C14.8713 50.5396 15.0867 50.6623 15.3218 50.7295C15.5568 50.7966 15.8045 50.8062 16.044 50.7575L17.9324 50.3717C19.7771 49.9873 21.4681 49.0694 22.7955 47.732L23.8818 46.7167L27.821 50.7778ZM59.4463 14.6448L50.309 5.56836L52.0349 3.73075L61.2331 12.929L59.4463 14.6448Z" fill="black"/>
</svg>

<svg xmlns="http://www.w3.org/2000/svg" width="65" height="65" fill="none" viewBox="0 0 65 65"><path fill="currentColor" d="M64.553 11.883 53.121.462a1.533 1.533 0 0 0-2.193 0l-3.797 4.06a1.5 1.5 0 0 0-.284.458 1.7 1.7 0 0 0-.091.324l-.945 7.615-25.543 25.858-5.016-4.822a1.523 1.523 0 0 0-2.03 0c-.203.193-5.229 4.72-7.666 7.168A18.84 18.84 0 0 0 .206 51a12.04 12.04 0 0 0 3.32 10.731 10.65 10.65 0 0 0 7.746 3.26c4.508 0 9.199-2.56 12.65-6.021l7.107-7.107a1.513 1.513 0 0 0 0-2.132l-4.985-5.157 25.92-25.382 7.614-.954q.178-.018.345-.082.244-.104.447-.274l4.061-3.817A1.53 1.53 0 0 0 65 12.98a1.5 1.5 0 0 0-.447-1.097M28.511 37.925l-1.563-1.564 20.305-20.478 1.888 1.889zM20.653 45.6a6.5 6.5 0 0 1-3.045 1.726 6.47 6.47 0 0 1 1.786-3.32l5.432-5.482 1.523 1.523zm31.148-29.422-3.045-3.046.538-4.295 6.772 6.762zm-23.98 34.6-6.091 6.091c-4.447 4.488-11.463 7.29-16.042 2.711a8.96 8.96 0 0 1-2.467-8.122 15.7 15.7 0 0 1 4.457-8.264c1.726-1.726 4.863-4.61 6.508-6.092l3.93 3.808-.904.913a9.63 9.63 0 0 0-2.701 5.34l-.274 1.869a1.5 1.5 0 0 0 .457 1.34 1.52 1.52 0 0 0 1.35.386l1.888-.386a9.6 9.6 0 0 0 4.864-2.64l1.086-1.015zm31.625-36.133L50.31 5.568l1.726-1.837 9.198 9.198z"/></svg>
